CommonLib.Web/CommonLib.Web/wwwroot/icons/duotone/boombox.svg

<svg xmlns="http://www.w3.org/2000/svg" viewBox="0 0 640 512"><!--! Font Awesome Pro 6.2.0 by @fontawesome - https://fontawesome.com License - https://fontawesome.com/license (Commercial License) Copyright 2022 Fonticons, Inc. --><defs><style>.fa-secondary{opacity:.4}</style></defs><path class="fa-primary" d="M176 224C114.1 224 64 274.1 64 336S114.1 448 176 448S288 397.9 288 336S237.9 224 176 224zM176 400c-35.3 0-64-28.7-64-64c0-35.3 28.7-64 64-64s64 28.7 64 64C240 371.3 211.3 400 176 400zM256 144C256 135.1 248.9 128 240 128h-32C199.1 128 192 135.1 192 144V160h64V144zM552 0H88C57.13 0 32 25.12 32 56v106.1C37.03 161.2 42.36 160 48 160h32V56c0-4.375 3.625-8 8-8h464c4.375 0 8 3.625 8 8V160h32c5.641 0 10.97 1.182 16 2.969V56C608 25.12 582.9 0 552 0zM448 144C448 135.1 440.9 128 432 128h-32C391.1 128 384 135.1 384 144V160h64V144zM352 144C352 135.1 344.9 128 336 128h-32C295.1 128 288 135.1 288 144V160h64V144zM464 224C402.1 224 352 274.1 352 336s50.13 112 112 112s112-50.13 112-112S525.9 224 464 224zM464 400c-35.3 0-64-28.7-64-64c0-35.3 28.7-64 64-64s64 28.7 64 64C528 371.3 499.3 400 464 400z"/><path class="fa-secondary" d="M592 160h-544C21.49 160 0 181.5 0 208v256C0 490.5 21.49 512 48 512h544c26.51 0 48-21.49 48-48v-256C640 181.5 618.5 160 592 160zM176 448C114.1 448 64 397.9 64 336S114.1 224 176 224S288 274.1 288 336S237.9 448 176 448zM464 448c-61.88 0-112-50.13-112-112S402.1 224 464 224S576 274.1 576 336S525.9 448 464 448z"/></svg>

<svg xmlns="http://www.w3.org/2000/svg" viewBox="0 0 640 512"><defs><style>.fa-secondary{opacity:.4}</style></defs><path d="M592 160H48a48 48 0 0 0-48 48v256a48 48 0 0 0 48 48h544a48 48 0 0 0 48-48V208a48 48 0 0 0-48-48zM176 448a112 112 0 1 1 112-112 112.12 112.12 0 0 1-112 112zm288 0a112 112 0 1 1 112-112 112.12 112.12 0 0 1-112 112z" class="fa-secondary"/><path d="M552 0H88a56.07 56.07 0 0 0-56 56v106.94A47.5 47.5 0 0 1 48 160h32V56a8 8 0 0 1 8-8h464a8 8 0 0 1 8 8v104h32a47.5 47.5 0 0 1 16 2.94V56a56.06 56.06 0 0 0-56-56zM256 144a16 16 0 0 0-16-16h-32a16 16 0 0 0-16 16v16h64zm192 0a16 16 0 0 0-16-16h-32a16 16 0 0 0-16 16v16h64zm-96 0a16 16 0 0 0-16-16h-32a16 16 0 0 0-16 16v16h64zm112 80a112 112 0 1 0 112 112 112.12 112.12 0 0 0-112-112zm0 176a64 64 0 1 1 64-64 64.07 64.07 0 0 1-64 64zM176 224a112 112 0 1 0 112 112 112.12 112.12 0 0 0-112-112zm0 176a64 64 0 1 1 64-64 64.07 64.07 0 0 1-64 64z" class="fa-primary"/></svg>
